X: 13455
T: Flop-Eared Mule, The
R: polka
M: 2/4
K: Dmajor
|:f2f2d2d2|ABAF D2 D2|E2 EF GF E2|1 DEFG A2 A2:|2 D2FD2D2||
|:efec efec|efec A2 A2|B2 Bc dc B2|1 ABcd e2 e2:|2 A2c2A2A2||

